X:3313
T: [illegible] Lawrence's Gallop
O:ireland
C:
S:Chingford MM
N:FAX close to unreadable
A:Chingford
R:R
P:A.(AB)$^4$.A
K:Em
I:speed 400
P:A
BA |\
G2 F2 E2 BA  | G2 F2  E2  B2 | c2 cB A2 d2 | B2 BA G2 B2 |
A2 G2 F2 E2  | D2 B,2 B,2 BA | G2 FE D2 F2 | E2-E2 E2    ||
P:B
z2 |\
e2 e2 e2 ^de | f2 B2  B4     | e2 B2 B2 A2 | GFGE  D2 F2 |
E2 EF G2 A2  | B2 B2  e4     | d2 B2 c2 dc | B2 E2 A4    |
G2 F2 E2 D2  | EFGF   E2  BA | G2 FE D2 F2 | E4    E2    ||
M:2/2
